!!!!SEGMENT: pl-kk--kk-i-14--015_anonim-christe-sanctorum-decus.krn
!!!id: 17xx:2203
!!!COM: Anonim
!!!OTL: Christe sanctorum decus
!!!PDT:
!!!SMS-siglum: PL-Kk
!!!SMS-shelfmark: Kk.I.14
!!!NIFC-rismID: 1001154409
!!!URL-scan: http://repozytorium.nifc.pl/skany/pl-kk-nut--i-14
!!!ONB-nifc: UWAGA: tylko B rip, skan 0009
!!!SMS-variant:
!!!SMS-altvar:
**kern	**text	**text	**text
*I"Baſso Ripieno.	*	*	*
*I'B rip	*	*	*
*clefF4	*	*	*
*k[b-]	*	*	*
*M3/2	*	*	*
=1-	=1-	=1-	=1-
*2\right	*	*	*
!LO:TX:t=P:problem:w źródle znaki przykluczowe B- i BB-, jeden nad drugim	!	!	!
2F\	Chri-	An-	An-
2A\	-ste	-ge-	-ge-
!LO:TX:t=P:problem:kreska pseudotaktowa	!	!	!
2B-\	San-	-lus	-lus
=2-	=2-	=2-	=2-
1G	-cto-	Pa-	for-
!LO:TX:t=P:problem:kreska pseudotaktowa	!	!	!
2F\	-ru(m)	-cis	-tis
=3-	=3-	=3-	=3-
2.D/	.	.	Ga-
4D/	de-	Mi-	-bri-
!LO:TX:t=P:problem:kreska pseudotaktowa	!	!	!
2C/	-cus	-cha-	-el
=4-	=4-	=4-	=4-
2F\	An-	-el	ut
2G\	-ge-	in	ho-
!LO:TX:t=P:problem:kreska pseudotaktowa	!	!	!
2GG/	-lo-	ae-	.
=5-	=5-	=5-	=5-
!LO:TX:t=P:problem:kreska pseudotaktowa	!	!	!
1.C	-rum	-des	-stes
=6-	=6-	=6-	=6-
!LO:TX:t=P:problem:kreska pseudotaktowa	!	!	!
!LO:TX:a:t=1.	!	!	!
1.r	.	.	.
=7-	=7-	=7-	=7-
2C/	Gen-	cae-	pel-
2C/	-tis	-li-	-lat
!LO:TX:t=P:problem:kreska pseudotaktowa	!	!	!
2C/	hu-	-tus	an-
=8-	=8-	=8-	=8-
2.G\	-ma-	.	-ti-
4F\	-nae	no-	-quos
!LO:TX:t=P:problem:kreska pseudotaktowa	!	!	!
2E\	.	-stras	et
=9-	=9-	=9-	=9-
2A\	Sa-	.	a-
2E\	-tor	ve-	-mi-
!LO:TX:t=P:problem:kreska pseudotaktowa	!	!	!
2A\	et	-niat	-ca
=10-	=10-	=10-	=10-
2D\	Re-	se-	cae-
!LO:TX:t=P:problem:kreska pseudotaktowa	!	!	!
1E	-dem-	-re-	.
=11-	=11-	=11-	=11-
!LO:TX:t=P:problem:kreska pseudotaktowa	!	!	!
1.AA	-ptor	-nae	-lo
!LO:LB:g=original	!	!	!
=12-	=12-	=12-	=12-
!LO:TX:t=P:problem:kreska pseudotaktowa	!	!	!
2.F\	Cae-	au-	quae
4C/	-li-	-thor	.
!LO:TX:t=P:problem:kreska pseudotaktowa	!	!	!
2F\	-tum	ut	Tri-
=13-	=13-	=13-	=13-
1F	no-	pa-	-um-
!LO:TX:t=P:problem:kreska pseudotaktowa	!	!	!
2E\	-bis	-cis	-pha-
=14-	=14-	=14-	=14-
2.A\	tri-	la-	-tor
4A\	-bu-	-chri-	Sta-
!LO:TX:t=P:problem:kreska pseudotaktowa	!	!	!
2B-\	-as	-mo-	-tu-
=15-	=15-	=15-	=15-
2G\	be-	-sa	-it
2A\	-a-	in	per
!LO:TX:t=P:problem:kreska pseudotaktowa	!	!	!
2AA/	.	or-	or-
=16-	=16-	=16-	=16-
!LO:TX:t=P:problem:kreska pseudotaktowa	!	!	!
1.D	-tas	-cum	-bem
=17-	=17-	=17-	=17-
0.r	.	.	.
=18-	=18-	=18-	=18-
.	.	.	.
=19-	=19-	=19-	=19-
!LO:TX:t=P:problem:kreska pseudotaktowa	!	!	!
1.r	.	.	.
=20-	=20-	=20-	=20-
4.C/	Scan-	bel-	Tem-
8D/	.	.	.
4E/	.	.	.
4D/	.	.	.
4E/	.	.	.
!LO:TX:t=P:problem:kreska pseudotaktowa	!	!	!
4C/	.	.	.
=21-	=21-	=21-	=21-
2.F\	.	.	.
4F\	-de-	.	-pla
!LO:TX:t=P:problem:kreska pseudotaktowa	!	!	!
2F\	-re	-la	.
=22-	=22-	=22-	=22-
*	*ij	*ij	*ij
2.F\	Scan-	bel-	Tem-
4F\	-de-	-la	-pla
!LO:TX:t=P:problem:kreska pseudotaktowa	!	!	!
2E\	-re	.	.
*	*Xij	*Xij	*Xij
=23-	=23-	=23-	=23-
2D/	Se-	re-	re-
2C/	.	-le-	-vi-
!LO:TX:t=P:problem:kreska pseudotaktowa	!	!	!
2G\	.	.	.
=24-	=24-	=24-	=24-
!LO:TX:t=P:problem:kreska pseudotaktowa	!	!	!
1.C	-des	-get	-sat
!LO:LB:g=original	!	!	!
=25-	=25-	=25-	=25-
1.r	.	.	.
=26-	=26-	=26-	=26-
!LO:TX:t=P:problem:zwr. 2, 3 – brak tekstu (niekompletne źródło)	!	!	!
(>4.F\	Scan-	.	.
8G\	.	.	.
4A\	.	.	.
4G\	.	.	.
4A\	.	.	.
!LO:TX:t=P:problem:kreska pseudotaktowa	!	!	!
4F\)	.	.	.
=27-	=27-	=27-	=27-
2.c\	.	.	.
4c\	-de-	.	.
!LO:TX:t=P:problem:kreska pseudotaktowa	!	!	!
2c\	-re	.	.
=28-	=28-	=28-	=28-
(>4.B-X\	scan-	.	.
8c\	.	.	.
4.B-\	.	.	.
8c\	.	.	.
4.B-\	.	.	.
!LO:TX:t=P:problem:kreska pseudotaktowa	!	!	!
8c\)	.	.	.
=29-	=29-	=29-	=29-
2A\	.	.	.
2B-\	.	.	.
!LO:TX:t=P:problem:kreska pseudotaktowa	!	!	!
2G\	.	.	.
=30-	=30-	=30-	=30-
2.F\	.	.	.
4G\	-de-	.	.
!LO:TX:t=P:problem:kreska pseudotaktowa	!	!	!
2A\	-re	.	.
=31-	=31-	=31-	=31-
2B-\	se-	re-	re-
2c\	-des	-le-	-vi-
!LO:TX:t=P:problem:kreska pseudotaktowa	!	!	!
2C/	.	.	.
=32-	=32-	=32-	=32-
2F\	.	-get.	-sat.
2F\	.	.	.
!LO:TX:t=P:problem:kreska pseudotaktowa	!	!	!
2F\	.	.	.
=33-	=33-	=33-	=33-
1.BB-	.	.	.
=34-	=34-	=34-	=34-
0.F;>	.	.	.
=-	=-	=-	=-
*-	*-	*-	*-
!!!RDF**kern: > = above
!!!RDF**kern: < = below
!!!ENC: Katarzyna Serwa
!!!END: 2021-07-01
!!!EED: Antoni Szymański
!!!EST: 2021-07-19
